svg/fluentui-system-icons/ic_fluent_text_grammar_settings_20_filled.svg

<svg width="20" height="20" viewBox="0 0 20 20" fill="none" xmlns="http://www.w3.org/2000/svg">
<path d="M18 5.75C18 5.33579 17.6642 5 17.25 5H2.75C2.33578 5 2 5.33579 2 5.75C2 6.16421 2.33579 6.5 2.75 6.5H17.25C17.6642 6.5 18 6.16421 18 5.75ZM18 8.75C18 8.33579 17.6642 8 17.25 8H2.75C2.33578 8 2 8.33579 2 8.75C2 9.16421 2.33579 9.5 2.75 9.5H12.2055C12.9039 9.179 13.681 9 14.5 9C15.319 9 16.0961 9.179 16.7945 9.5H17.25C17.6642 9.5 18 9.16421 18 8.75ZM2.75 11H10.2572C9.88857 11.4463 9.58904 11.9518 9.37494 12.5H2.75C2.33579 12.5 2 12.1642 2 11.75C2 11.3358 2.33578 11 2.75 11ZM2.75 14H9.02242C9.00758 14.1647 9 14.3315 9 14.5C9 14.8415 9.03112 15.1757 9.09069 15.5H2.75C2.33579 15.5 2 15.1642 2 14.75C2 14.3358 2.33578 14 2.75 14ZM12.0657 11.442C12.369 12.5231 11.723 13.642 10.6351 13.9199L10.174 14.0377C10.159 14.1896 10.1514 14.3438 10.1514 14.4999C10.1514 14.6875 10.1625 14.8725 10.184 15.0541L10.5336 15.1368C11.653 15.4014 12.319 16.5536 11.9897 17.6557L11.8633 18.0785C12.1205 18.2817 12.4002 18.4559 12.698 18.5964L13.023 18.2523C13.8128 17.416 15.1436 17.4167 15.9325 18.2538L16.2698 18.6118C16.5623 18.4769 16.8376 18.3095 17.0917 18.1142L16.9356 17.5575C16.6323 16.4764 17.2783 15.3575 18.3662 15.0795L18.8268 14.9619C18.8417 14.81 18.8494 14.6559 18.8494 14.4999C18.8494 14.3121 18.8383 14.127 18.8167 13.9452L18.4677 13.8627C17.3483 13.598 16.6823 12.4459 17.0116 11.3438L17.1378 10.9215C16.8806 10.7182 16.6008 10.5439 16.303 10.4034L15.9783 10.7472C15.1885 11.5835 13.8577 11.5828 13.0688 10.7457L12.7314 10.3877C12.439 10.5226 12.1636 10.6899 11.9095 10.8852L12.0657 11.442ZM14.5004 15.4999C13.9481 15.4999 13.5004 15.0521 13.5004 14.4999C13.5004 13.9476 13.9481 13.4999 14.5004 13.4999C15.0527 13.4999 15.5004 13.9476 15.5004 14.4999C15.5004 15.0521 15.0527 15.4999 14.5004 15.4999Z" fill="#212121"/>
</svg>

<svg xmlns="http://www.w3.org/2000/svg" width="20" height="20"><path d="M18 5.75a.75.75 0 0 0-.75-.75H2.75a.75.75 0 1 0 0 1.5h14.5a.75.75 0 0 0 .75-.75Zm0 3a.75.75 0 0 0-.75-.75H2.75a.75.75 0 1 0 0 1.5h9.456A5.48 5.48 0 0 1 14.5 9a5.48 5.48 0 0 1 2.294.5h.456a.75.75 0 0 0 .75-.75ZM2.75 11h7.507a5.495 5.495 0 0 0-.882 1.5H2.75a.75.75 0 0 1 0-1.5Zm0 3h6.272a5.571 5.571 0 0 0 .069 1.5H2.75a.75.75 0 0 1 0-1.5Zm9.316-2.558a2 2 0 0 1-1.43 2.478l-.462.118a4.703 4.703 0 0 0 .01 1.016l.35.083a2 2 0 0 1 1.456 2.519l-.127.422c.258.204.537.378.835.518l.325-.344a2 2 0 0 1 2.91.002l.337.358c.292-.135.568-.302.822-.498l-.156-.556a2 2 0 0 1 1.43-2.479l.46-.117a4.731 4.731 0 0 0-.01-1.017l-.348-.082a2 2 0 0 1-1.456-2.52l.126-.421a4.318 4.318 0 0 0-.835-.519l-.325.344a2 2 0 0 1-2.91-.001l-.337-.358a4.316 4.316 0 0 0-.822.497l.157.557ZM14.5 15.5a1 1 0 1 1 0-2 1 1 0 0 1 0 2Z"/></svg>
